assets/icons/pictograms/jumping_rope.svg

<?xml version="1.0" standalone="no"?>
<svg version="1.2" xmlns="http://www.w3.org/2000/svg" xmlns:xlink="http://www.w3.org/1999/xlink" overflow="visible" preserveAspectRatio="none" viewBox="0 0 29.999976454785724 29.999999999999996" width="29.999976454785724" height="29.999999999999996"><g transform="translate(0, 0)"><g transform="translate(0.0035106841360234044, 0.0013691729552441263) rotate(21.305870626842136)"><path style="stroke-width: 0px; stroke-linecap: butt; stroke-linejoin: miter; fill: rgb(255, 255, 255);" d="M0.36762,20.79351c0.48062,0.81101 1.33032,1.29508 2.27182,1.29508h0.80698c1.57968,4.81807 6.05213,7.91141 11.54894,7.91141c5.49768,0 9.97096,-3.0941 11.55064,-7.91141h0.80698c0.9415,0 1.7912,-0.48407 2.27182,-1.29508c0.47805,-0.80591 0.49521,-1.77576 0.04804,-2.59538c-0.82995,-1.51825 -1.26592,-4.08235 -0.00088,-6.3979c0.44799,-0.81962 0.43088,-1.78947 -0.04722,-2.59538c-0.48057,-0.81107 -1.33026,-1.29514 -2.27176,-1.29514h-0.80762c-1.58021,-4.81631 -6.05295,-7.90971 -11.54999,-7.90971c-5.49528,0 -9.96808,3.0934 -11.54829,7.90971h-0.80762c-0.9415,0 -1.7912,0.48407 -2.27182,1.29508c-0.47805,0.80591 -0.49521,1.77576 -0.04804,2.59538c1.26592,2.31555 0.82995,4.87965 0.00088,6.3979c-0.44805,0.81968 -0.43088,1.78953 0.04717,2.59544zM6.71055,18.19813c-0.82995,-1.51825 -1.26592,-4.08235 -0.00088,-6.3979c0.44799,-0.81962 0.43088,-1.78947 -0.04722,-2.59538c-0.32389,-0.54659 -0.82309,-0.92778 -1.39746,-1.12927c1.71667,-4.61177 6.23195,-6.31786 9.73583,-6.31786c3.50464,0 8.0208,1.70609 9.73753,6.31786c-0.57437,0.20149 -1.07357,0.58262 -1.39746,1.12927c-0.47805,0.80591 -0.49521,1.77576 -0.04804,2.59538c1.26592,2.31555 0.82995,4.87965 0.00088,6.3979c-0.44799,0.81962 -0.43088,1.78947 0.04722,2.59538c0.32401,0.54682 0.82338,0.92801 1.39799,1.12945c-1.71637,4.61294 -6.23306,6.31933 -9.73811,6.31933c-3.50423,0 -8.02016,-1.70645 -9.73636,-6.31933c0.57461,-0.20149 1.07404,-0.58262 1.39799,-1.12945c0.47811,-0.80591 0.49527,-1.77576 0.0481,-2.59538z"/></g><defs><path id="path-15911087293372019" d="M0.36762,20.79351c0.48062,0.81101 1.33032,1.29508 2.27182,1.29508h0.80698c1.57968,4.81807 6.05213,7.91141 11.54894,7.91141c5.49768,0 9.97096,-3.0941 11.55064,-7.91141h0.80698c0.9415,0 1.7912,-0.48407 2.27182,-1.29508c0.47805,-0.80591 0.49521,-1.77576 0.04804,-2.59538c-0.82995,-1.51825 -1.26592,-4.08235 -0.00088,-6.3979c0.44799,-0.81962 0.43088,-1.78947 -0.04722,-2.59538c-0.48057,-0.81107 -1.33026,-1.29514 -2.27176,-1.29514h-0.80762c-1.58021,-4.81631 -6.05295,-7.90971 -11.54999,-7.90971c-5.49528,0 -9.96808,3.0934 -11.54829,7.90971h-0.80762c-0.9415,0 -1.7912,0.48407 -2.27182,1.29508c-0.47805,0.80591 -0.49521,1.77576 -0.04804,2.59538c1.26592,2.31555 0.82995,4.87965 0.00088,6.3979c-0.44805,0.81968 -0.43088,1.78953 0.04717,2.59544zM6.71055,18.19813c-0.82995,-1.51825 -1.26592,-4.08235 -0.00088,-6.3979c0.44799,-0.81962 0.43088,-1.78947 -0.04722,-2.59538c-0.32389,-0.54659 -0.82309,-0.92778 -1.39746,-1.12927c1.71667,-4.61177 6.23195,-6.31786 9.73583,-6.31786c3.50464,0 8.0208,1.70609 9.73753,6.31786c-0.57437,0.20149 -1.07357,0.58262 -1.39746,1.12927c-0.47805,0.80591 -0.49521,1.77576 -0.04804,2.59538c1.26592,2.31555 0.82995,4.87965 0.00088,6.3979c-0.44799,0.81962 -0.43088,1.78947 0.04722,2.59538c0.32401,0.54682 0.82338,0.92801 1.39799,1.12945c-1.71637,4.61294 -6.23306,6.31933 -9.73811,6.31933c-3.50423,0 -8.02016,-1.70645 -9.73636,-6.31933c0.57461,-0.20149 1.07404,-0.58262 1.39799,-1.12945c0.47811,-0.80591 0.49527,-1.77576 0.0481,-2.59538z"/></defs></g></svg>

<?xml version="1.0" encoding="UTF-8" standalone="no"?>
<svg
   xmlns:dc="http://purl.org/dc/elements/1.1/"
   xmlns:cc="http://creativecommons.org/ns#"
   xmlns:rdf="http://www.w3.org/1999/02/22-rdf-syntax-ns#"
   xmlns:svg="http://www.w3.org/2000/svg"
   xmlns="http://www.w3.org/2000/svg"
   xmlns:sodipodi="http://sodipodi.sourceforge.net/DTD/sodipodi-0.dtd"
   xmlns:inkscape="http://www.inkscape.org/namespaces/inkscape"
   version="1.2"
   overflow="visible"
   preserveAspectRatio="none"
   viewBox="0 0 31.540454 29.8242"
   width="31.540455"
   height="29.8242"
   id="svg11"
   sodipodi:docname="jumping_rope.svg"
   inkscape:version="1.0 (b51213c273, 2020-08-10)">
  <metadata
     id="metadata17">
    <rdf:RDF>
      <cc:Work
         rdf:about="">
        <dc:format>image/svg+xml</dc:format>
        <dc:type
           rdf:resource="http://purl.org/dc/dcmitype/StillImage" />
      </cc:Work>
    </rdf:RDF>
  </metadata>
  <defs
     id="defs15" />
  <sodipodi:namedview
     pagecolor="#ffffff"
     bordercolor="#666666"
     borderopacity="1"
     objecttolerance="10"
     gridtolerance="10"
     guidetolerance="10"
     inkscape:pageopacity="0"
     inkscape:pageshadow="2"
     inkscape:window-width="1680"
     inkscape:window-height="1026"
     id="namedview13"
     showgrid="false"
     inkscape:zoom="24.5"
     inkscape:cx="16.201485"
     inkscape:cy="15.233938"
     inkscape:window-x="0"
     inkscape:window-y="30"
     inkscape:window-maximized="1"
     inkscape:current-layer="svg11" />
  <g
     transform="translate(7.2453467,-4.5128177)"
     id="g9">
    <g
       transform="rotate(21.305871,-0.00188411,0.01001648)"
       id="g4">
      <path
         style="fill:#ffffff;stroke-width:0px;stroke-linecap:butt;stroke-linejoin:miter"
         d="m 0.36762,20.79351 c 0.48062,0.81101 1.33032,1.29508 2.27182,1.29508 H 3.44642 C 5.0261,26.90666 9.49855,30 14.99536,30 20.49304,30 24.96632,26.9059 26.546,22.08859 h 0.80698 c 0.9415,0 1.7912,-0.48407 2.27182,-1.29508 0.47805,-0.80591 0.49521,-1.77576 0.04804,-2.59538 -0.82995,-1.51825 -1.26592,-4.08235 -8.8e-4,-6.3979 0.44799,-0.81962 0.43088,-1.78947 -0.04722,-2.59538 C 29.14417,8.39378 28.29448,7.90971 27.35298,7.90971 H 26.54536 C 24.96515,3.0934 20.49241,0 14.99537,0 9.50009,0 5.02729,3.0934 3.44708,7.90971 H 2.63946 c -0.9415,0 -1.7912,0.48407 -2.27182,1.29508 -0.47805,0.80591 -0.49521,1.77576 -0.04804,2.59538 1.26592,2.31555 0.82995,4.87965 8.8e-4,6.3979 -0.44805,0.81968 -0.43088,1.78953 0.04717,2.59544 z M 6.71055,18.19813 C 5.8806,16.67988 5.44463,14.11578 6.70967,11.80023 7.15766,10.98061 7.14055,10.01076 6.66245,9.20485 6.33856,8.65826 5.83936,8.27707 5.26499,8.07558 6.98166,3.46381 11.49694,1.75772 15.00082,1.75772 c 3.50464,0 8.0208,1.70609 9.73753,6.31786 -0.57437,0.20149 -1.07357,0.58262 -1.39746,1.12927 -0.47805,0.80591 -0.49521,1.77576 -0.04804,2.59538 1.26592,2.31555 0.82995,4.87965 8.8e-4,6.3979 -0.44799,0.81962 -0.43088,1.78947 0.04722,2.59538 0.32401,0.54682 0.82338,0.92801 1.39799,1.12945 -1.71637,4.61294 -6.23306,6.31933 -9.73811,6.31933 -3.50423,0 -8.02016,-1.70645 -9.73636,-6.31933 0.57461,-0.20149 1.07404,-0.58262 1.39799,-1.12945 0.47811,-0.80591 0.49527,-1.77576 0.0481,-2.59538 z"
         id="path2" />
    </g>
    <defs
       id="defs7">
      <path
         id="path-15911087293372019"
         d="m 0.36762,20.79351 c 0.48062,0.81101 1.33032,1.29508 2.27182,1.29508 H 3.44642 C 5.0261,26.90666 9.49855,30 14.99536,30 20.49304,30 24.96632,26.9059 26.546,22.08859 h 0.80698 c 0.9415,0 1.7912,-0.48407 2.27182,-1.29508 0.47805,-0.80591 0.49521,-1.77576 0.04804,-2.59538 -0.82995,-1.51825 -1.26592,-4.08235 -8.8e-4,-6.3979 0.44799,-0.81962 0.43088,-1.78947 -0.04722,-2.59538 C 29.14417,8.39378 28.29448,7.90971 27.35298,7.90971 H 26.54536 C 24.96515,3.0934 20.49241,0 14.99537,0 9.50009,0 5.02729,3.0934 3.44708,7.90971 H 2.63946 c -0.9415,0 -1.7912,0.48407 -2.27182,1.29508 -0.47805,0.80591 -0.49521,1.77576 -0.04804,2.59538 1.26592,2.31555 0.82995,4.87965 8.8e-4,6.3979 -0.44805,0.81968 -0.43088,1.78953 0.04717,2.59544 z M 6.71055,18.19813 C 5.8806,16.67988 5.44463,14.11578 6.70967,11.80023 7.15766,10.98061 7.14055,10.01076 6.66245,9.20485 6.33856,8.65826 5.83936,8.27707 5.26499,8.07558 6.98166,3.46381 11.49694,1.75772 15.00082,1.75772 c 3.50464,0 8.0208,1.70609 9.73753,6.31786 -0.57437,0.20149 -1.07357,0.58262 -1.39746,1.12927 -0.47805,0.80591 -0.49521,1.77576 -0.04804,2.59538 1.26592,2.31555 0.82995,4.87965 8.8e-4,6.3979 -0.44799,0.81962 -0.43088,1.78947 0.04722,2.59538 0.32401,0.54682 0.82338,0.92801 1.39799,1.12945 -1.71637,4.61294 -6.23306,6.31933 -9.73811,6.31933 -3.50423,0 -8.02016,-1.70645 -9.73636,-6.31933 0.57461,-0.20149 1.07404,-0.58262 1.39799,-1.12945 0.47811,-0.80591 0.49527,-1.77576 0.0481,-2.59538 z" />
    </defs>
  </g>
</svg>
